!!!COM: Anonim
!!!CDT: [?]
!!!OTL@@LAT: Pastores relinquite
!!!OTL@POL: Pasterz Daÿcie teraz pokoÿ
!!!TXO: Latin/Polish
!!!ODT: 
!!!GTL: Hymnbook E
!!!ARL: Opactwo św. Wojciecha, Staniątki 
!!!voices:	3
**kern	**kern	**text	**kern	**text
*staff3	*staff2	*staff2	*staff1	*staff1
*I"Basso	*I"Canto II	*	*I"Canto I	*
=1-	=1-	=1-	=1-	=1-
*clefF4	*clefG2	*	*clefG2	*
*k[b-]	*k[b-]	*	*k[b-]	*
*met(c|)	*met(c|)	*	*met(c|)	*
*M2/2	*M2/2	*	*M2/2	*
1r	2f/	Pas-	2f/	Pas-
.	2a/	-to-	2cc\	-to-
=2	=2	=2	=2	=2
1r	1f	-res	1a	-res
=3	=3	=3	=3	=3
*M3/2	*M3/2	*	*M3/2	*
2F\	2a/	re-	2cc\	re-
2F\	2a/	-lin-	2cc\	-lin-
2BB-/	2b-\	-qui-	2dd\	-qui-
=4	=4	=4	=4	=4
1F	1a	-te	1cc	-te
2D\	2cc\	ves-	2a/	ves-
=5	=5	=5	=5	=5
2.BB-/	2.dd\	-tros	2.b-\	-tros
4D\	4cc\	.	4a/	.
2C/	2b-\	gre-	2g/	gre-
=6	=6	=6	=6	=6
!!linebreak:original
[1.FF	[1.cc	-ges	[1.a;	-ges
=7	=7	=7	=7	=7
1.FF]	1.cc]	.	1.a]	.
=8	=8	=8	=8	=8
2r	2r	.	2r	.
2r	2r	.	2r	.
2F\	2a/	Quis	2f/	Quis
=9	=9	=9	=9	=9
1F	1a	cla-	1f	cla-
2E\	2cc\	-mor	2c/	-mor
=10	=10	=10	=10	=10
1D	1a	o-	1f	o-
2C/	2cc\	-ri-	2g/	-ri-
=11	=11	=11	=11	=11
!!linebreak:original
1.FF	1.cc	-tur	1.a	-tur
=12	=12	=12	=12	=12
2r	2r	.	2r	.
2r	2r	.	2r	.
2F\	2a/	quid	2f/	quid
=13	=13	=13	=13	=13
1F	1a	vox	1f	vox
2E\	2g/	nunc	2c/	nunc
=14	=14	=14	=14	=14
1D	1a	au-	1f	au-
2C/	2cc\	-di-	2g/	-di-
=15	=15	=15	=15	=15
1.FF	1.cc	-tur	1.a	-tur
=16	=16	=16	=16	=16
!!pagebreak:original
1BB-	1cc	in	1g	in
2C/	2cc\	ter-	2e/	ter-
=17	=17	=17	=17	=17
1.FF	1.a	-ris	1.f	-ris
=18!|:	=18!|:	=18!|:	=18!|:	=18!|:
1F	1a	E-	1cc	E-
2E\	2g/	-a-	2b-\	-a-
=19	=19	=19	=19	=19
1F	1f	-mus	1a	-mus
2C/	2e/	in	2g/	in
=20	=20	=20	=20	=20
1F	1f	Be-	1a	Be-
2G\	2f/	-thle-	2b-\	-thle-
=21	=21	=21	=21	=21
!!linebreak:original
1.C	1.e	-em	1.cc	-em
=22	=22	=22	=22	=22
1F	1a	vi-	1cc	vi-
2E\	2g/	-de-	2b-\	-de-
=23	=23	=23	=23	=23
1F	1f	-a-	1a	-a-
2C/	2e/	-mus	2g/	-mus
=24	=24	=24	=24	=24
1F	1f	hunc	1a	hunc
2C/	2cc\	re-	2g/	re-
=25	=25	=25	=25	=25
1.FF	1.a	-gem	1.f	-gem
=26	=26	=26	=26	=26
!!linebreak:original
1F	1a	huc	1cc	huc
2E\	2g/	sa-	2cc\	sa-
=27	=27	=27	=27	=27
2F\	2f/	-lu-	2a/	-lu-
2BB-/	2f/	-ta-	2b-\	-ta-
2C/	2e/	-bi-	2g/	-bi-
=28	=28	=28	=28	=28
1.FF	1.f	-mus	1.a	-mus
=29	=29	=29	=29	=29
2D\	2f/	e-	1a	e-
1C	2f/	-a-	.	.
.	2e/	.	2g/	-a-
=30	=30	=30	=30	=30
1.FF	1.f	-mus.	1.f	-mus.
==:|!	==:|!	==:|!	==:|!	==:|!
*-	*-	*-	*-	*-
!!title: @{OTL}, @{GTL}: @{pag}, ed. @{ENC}
!!!pag: pp. 35v-36r
!!!GTL: Hymnbook E
!!!EFL: 
!!!YEM: Creative Commons CC/BY/NC/SA 4.0
!!!ENC: Marcin Konik
!!!END: 2015-05-03
!!!EED: Marcin Konik
!!!EEV: 
!!!ONB: Encoded in vim by Marcin Konik
!!!CharacterEncoding: utf-8
!!!RDF**kern: l=long note in original notation
!!!RDF**kern: i=editorial accidental
!!muse2ps: z14jc180F
